X:15522
T:Sitting in da Stern of da Boat
T:x2
R:reel
C:Trad.
M:C
L:1/8
K:Am
"Am"Aa2g a2ef | "G"gedB GA(3BAG | "Am"Aa2g a2ef | "G"gedB "Am"A2AB :|
"Am"cAeA cAeA | "G"BcdB G4 | "Am" cAeA cAeA | "G"BA(3GAB "Am"A4 |
"Am"cAeA cAeA | "G"BcdB G4 | "F"ABcd "Em"efga | "G"gedB "Am"A4 |]


